app/dist/common/images/allied-motion.svg

<svg height="18" viewBox="0 0 18 18" width="18" xmlns="http://www.w3.org/2000/svg"><path d="m0 0h18v18h-18z" fill="#1567cd"/><path d="m10.5 11h-1.5v-4h2l1 2 1-2h2v4h-1.5v-2l-1 2h-1l-1-2zm-6.5 0h-2l2.5-4h2l2.5 4h-2l-1.5-2.5z" fill="#fcfdf3"/></svg>

<!-- by TradingView --><svg width="18" height="18" viewBox="0 0 18 18" xmlns="http://www.w3.org/2000/svg"><path fill="#1567CD" d="M0 0h18v18H0z"/><path d="M10.5 11H9V7h2l1 2 1-2h2v4h-1.5V9l-1 2h-1l-1-2v2ZM4 11H2l2.5-4h2L9 11H7L5.5 8.5 4 11Z" fill="#FCFDF3"/></svg>
